assets/svg/yoga-flower.svg

<svg width="411" height="288" viewBox="0 0 411 288" fill="none" xmlns="http://www.w3.org/2000/svg">
<path d="M405.712 187.06C384.686 182.796 363.25 180.896 341.802 181.395C354.132 150.191 356.673 112.569 349.241 69.2474C349.081 68.321 348.731 67.4376 348.214 66.6522C347.698 65.8668 347.025 65.1962 346.238 64.6821C345.45 64.1681 344.566 63.8215 343.639 63.6641C342.712 63.5067 341.763 63.5417 340.85 63.7671C317.705 70.2809 295.659 80.2089 275.441 93.2237C262.288 57.3521 239.771 25.6564 210.23 1.42879C208.904 0.404864 207.249 -0.0978236 205.578 0.0157813C203.907 0.129386 202.335 0.85141 201.161 2.04533C170.781 32.9473 150.471 64.6987 140.525 96.5803C118.978 81.9313 95.2134 70.8471 70.143 63.7534C69.2303 63.528 68.281 63.493 67.3541 63.6504C66.4273 63.8078 65.5427 64.1544 64.7556 64.6684C63.9685 65.1825 63.2956 65.8531 62.7788 66.6385C62.2621 67.424 61.9125 68.3073 61.7519 69.2337C54.3198 112.555 56.8885 150.171 69.1909 181.381C47.7432 180.883 26.3071 182.783 5.28149 187.046C4.32107 187.27 3.42062 187.699 2.6424 188.304C1.86419 188.91 1.22679 189.677 0.77427 190.554C0.319478 191.427 0.0583593 192.388 0.00871164 193.372C-0.040936 194.356 0.122056 195.338 0.486576 196.253C30.2561 270.799 88.2815 287.973 135.429 287.973C159.252 287.822 182.9 283.9 205.497 276.354C228.094 283.911 251.744 287.842 275.571 288C322.712 288 380.744 270.819 410.513 196.281C410.878 195.366 411.041 194.383 410.991 193.399C410.942 192.416 410.681 191.454 410.226 190.581C409.774 189.702 409.136 188.931 408.357 188.323C407.577 187.715 406.675 187.284 405.712 187.06V187.06ZM326.616 182.134C301.533 183.677 277.049 190.444 254.733 202.001C253.535 202.293 252.441 202.909 251.569 203.782V203.782C237.703 211.788 225.61 222.53 216.025 235.355C216.324 222.703 215.154 210.06 212.538 197.678C220.758 162.899 241.89 133.285 275.557 109.596C294.459 96.556 315.148 86.3183 336.98 79.201C342.83 119.495 339.295 154.048 326.616 182.134ZM206.517 16.1365C218.58 26.8162 250.637 58.3827 263.679 101.403C237.66 119.709 217.461 145.12 205.497 174.599C194.399 147.029 175.987 123.012 152.246 105.136C160.527 75.4127 178.686 45.5177 206.517 16.1365ZM74.0406 79.1599C97.7796 86.8859 120.142 98.3314 140.293 113.069V113.069C169.228 133.338 189.881 163.365 198.462 197.637C195.84 210.018 194.668 222.662 194.968 235.314C167.219 198.048 123.113 185.21 84.3702 182.1C71.6979 154.048 68.1634 119.488 74.0406 79.1804V79.1599ZM125.997 274.313C74.7118 271.532 37.9075 246.144 16.4742 198.849C47.5247 193.561 159.506 180.984 196.434 264.942C173.671 272.105 149.842 275.282 125.997 274.334V274.313ZM284.996 274.313C261.152 275.254 237.324 272.077 214.559 264.921C251.48 180.99 363.455 193.568 394.553 198.849C373.086 246.144 336.281 271.532 284.996 274.334V274.313Z" fill="black" fill-opacity="0.09"/>
</svg>

<svg width="411" height="288" fill="none" xmlns="http://www.w3.org/2000/svg"><path d="M405.712 187.06a287.867 287.867 0 00-63.91-5.665c12.33-31.204 14.871-68.826 7.439-112.148a6.84 6.84 0 00-5.602-5.583 6.85 6.85 0 00-2.789.103 241.933 241.933 0 00-65.409 29.457A213.995 213.995 0 00210.23 1.429a6.851 6.851 0 00-9.069.616c-30.38 30.902-50.69 62.654-60.636 94.535a242.721 242.721 0 00-70.382-32.827 6.85 6.85 0 00-8.391 5.48c-7.432 43.322-4.864 80.938 7.439 112.148a287.98 287.98 0 00-63.91 5.665 6.808 6.808 0 00-4.507 3.508 6.845 6.845 0 00-.287 5.699c29.77 74.546 87.794 91.72 134.942 91.72a225.728 225.728 0 0070.068-11.619A225.657 225.657 0 00275.571 288c47.141 0 105.173-17.181 134.942-91.719a6.841 6.841 0 00-.287-5.7 6.812 6.812 0 00-4.514-3.521zm-79.096-4.926a180.397 180.397 0 00-71.883 19.867 6.72 6.72 0 00-3.164 1.781 118.09 118.09 0 00-35.544 31.573 163.57 163.57 0 00-3.487-37.677c8.22-34.779 29.352-64.393 63.019-88.082a238.162 238.162 0 0161.423-30.395c5.85 40.294 2.315 74.847-10.364 102.933zM206.517 16.137c12.063 10.68 44.12 42.246 57.162 85.266a165.677 165.677 0 00-58.182 73.196 163.27 163.27 0 00-53.251-69.463c8.281-29.723 26.44-59.618 54.271-89zM74.041 79.16a235.902 235.902 0 0166.252 33.909 146.778 146.778 0 0158.169 84.568 163.184 163.184 0 00-3.494 37.677C167.219 198.048 123.113 185.21 84.37 182.1c-12.672-28.052-16.207-62.612-10.33-102.92v-.02zm51.956 195.153c-51.285-2.781-88.09-28.169-109.523-75.464 31.05-5.288 143.032-17.865 179.96 66.093a207.232 207.232 0 01-70.437 9.392v-.021zm158.999 0a207.589 207.589 0 01-70.437-9.392c36.921-83.931 148.896-71.353 179.994-66.072-21.467 47.295-58.272 72.683-109.557 75.485v-.021z" fill="#000" fill-opacity=".09"/></svg>
